media/ico/Ico_micro.svg

<svg width="96" height="96" viewBox="0 0 96 96" fill="none" xmlns="http://www.w3.org/2000/svg">
<path d="M48 8C41.372 8 36 13.372 36 20V44C36 50.628 41.372 56 48 56C54.628 56 60 50.628 60 44V20C60 13.372 54.628 8 48 8ZM48 16C50.204 16 52 17.796 52 20V44C52 46.204 50.204 48 48 48C45.796 48 44 46.204 44 44V20C44 17.796 45.796 16 48 16ZM20 44C20 58.1012 30.4375 69.7329 44 71.6797V84H52V71.6797C65.5625 69.7329 76 58.1012 76 44H68C68 55.044 59.044 64 48 64C36.956 64 28 55.044 28 44H20Z" fill="#4F4AFF"/>
</svg>

<?xml version="1.0" encoding="utf-8"?>
<!-- Generator: Adobe Illustrator 28.0.0, SVG Export Plug-In . SVG Version: 6.00 Build 0)  -->
<svg version="1.1" id="Layer_1" xmlns="http://www.w3.org/2000/svg" xmlns:xlink="http://www.w3.org/1999/xlink" x="0px" y="0px"
	 viewBox="0 0 96 96" style="enable-background:new 0 0 96 96;" xml:space="preserve">
<style type="text/css">
	.st0{fill:#B3B3B3;}
</style>
<path class="st0" d="M48,8c-6.6,0-12,5.4-12,12v24c0,6.6,5.4,12,12,12s12-5.4,12-12V20C60,13.4,54.6,8,48,8z M48,16c2.2,0,4,1.8,4,4
	v24c0,2.2-1.8,4-4,4s-4-1.8-4-4V20C44,17.8,45.8,16,48,16z M20,44c0,14.1,10.4,25.7,24,27.7V84h8V71.7C65.6,69.7,76,58.1,76,44h-8
	c0,11-9,20-20,20s-20-9-20-20H20z"/>
</svg>
